icons/gear-16.svg

<svg width="16" height="16" viewBox="0 0 16 16" xmlns="http://www.w3.org/2000/svg">
  <path fill-rule="evenodd" clip-rule="evenodd" d="M7.4288 1.52471C7.61685 1.50836 7.80736 1.5 8 1.5C8.19264 1.5 8.38315 1.50836 8.5712 1.52471C8.60669 1.52779 8.67932 1.56149 8.70795 1.67093L8.99702 2.77622C9.14363 3.33676 9.54617 3.74277 9.99429 3.96473C10.1678 4.05067 10.3351 4.14753 10.4952 4.25443C10.9118 4.53261 11.4652 4.67836 12.0243 4.52497L13.1272 4.22235C13.2361 4.19246 13.3017 4.23831 13.3223 4.26758C13.5408 4.57848 13.7326 4.90924 13.8946 5.25654C13.9094 5.2884 13.9167 5.36792 13.8362 5.44746L13.0214 6.25258C12.6099 6.65921 12.4591 7.21008 12.4908 7.70918C12.4969 7.80524 12.5 7.9022 12.5 8C12.5 8.0978 12.4969 8.19476 12.4908 8.29082C12.4591 8.78992 12.6099 9.34079 13.0214 9.74742L13.8362 10.5525C13.9167 10.6321 13.9094 10.7116 13.8946 10.7435C13.7326 11.0908 13.5408 11.4215 13.3223 11.7324C13.3017 11.7617 13.2361 11.8075 13.1272 11.7777L12.0243 11.475C11.4652 11.3216 10.9118 11.4674 10.4952 11.7456C10.3351 11.8525 10.1678 11.9493 9.99429 12.0353C9.54617 12.2572 9.14363 12.6632 8.99702 13.2238L8.70795 14.3291C8.67932 14.4385 8.60669 14.4722 8.5712 14.4753C8.38315 14.4916 8.19264 14.5 8 14.5C7.80736 14.5 7.61685 14.4916 7.4288 14.4753C7.3933 14.4722 7.32067 14.4385 7.29205 14.3291L7.00296 13.2237C6.85636 12.6632 6.45383 12.2572 6.00572 12.0353C5.83221 11.9493 5.66496 11.8525 5.50487 11.7456C5.08825 11.4674 4.53481 11.3216 3.97577 11.475L2.87278 11.7777C2.76387 11.8075 2.69826 11.7617 2.67768 11.7324C2.45921 11.4215 2.26738 11.0908 2.10543 10.7435C2.09057 10.7116 2.08328 10.6321 2.16377 10.5525L2.97865 9.74736C3.39017 9.34074 3.541 8.78987 3.50924 8.29078C3.50314 8.19474 3.50003 8.09778 3.50003 8C3.50003 7.90222 3.50314 7.80526 3.50924 7.70922C3.541 7.21013 3.39017 6.65926 2.97865 6.25264L2.16377 5.44746C2.08328 5.36793 2.09057 5.28841 2.10543 5.25655C2.26738 4.90924 2.45921 4.57848 2.67769 4.26758C2.69826 4.23831 2.76387 4.19247 2.87278 4.22235L3.97577 4.52498C4.53481 4.67837 5.08825 4.53262 5.50487 4.25444C5.66496 4.14755 5.83221 4.05069 6.00572 3.96475C6.45382 3.74279 6.85636 3.33678 7.00296 2.77625L7.29205 1.67093C7.32067 1.56149 7.3933 1.52779 7.4288 1.52471ZM8 0C7.76394 0 7.53009 0.010245 7.29889 0.0303435C6.55611 0.0949143 6.00991 0.645042 5.84086 1.29138L5.55177 2.39671C5.53431 2.46349 5.47287 2.55476 5.33993 2.62061C5.10832 2.73533 4.88526 2.86452 4.67192 3.00697C4.54894 3.08908 4.43933 3.09674 4.37267 3.07845L3.26968 2.77581C2.62644 2.59932 1.87827 2.79629 1.45041 3.40515C1.18168 3.78757 0.945496 4.19473 0.745967 4.62262C0.430999 5.29808 0.634823 6.04545 1.10948 6.51446L1.92436 7.31963C1.9735 7.36819 2.02164 7.46677 2.01227 7.61399C2.00415 7.74171 2.00003 7.87043 2.00003 8C2.00003 8.12957 2.00415 8.25829 2.01227 8.38601C2.02164 8.53323 1.9735 8.63181 1.92436 8.68037L1.10948 9.48555C0.634822 9.95455 0.430999 10.7019 0.745967 11.3774C0.945495 11.8053 1.18168 12.2124 1.45041 12.5948C1.87827 13.2037 2.62644 13.4007 3.26968 13.2242L4.37267 12.9216C4.43933 12.9033 4.54895 12.9109 4.67192 12.993C4.88526 13.1355 5.10832 13.2647 5.33993 13.3794C5.47287 13.4452 5.53431 13.5365 5.55177 13.6033L5.84086 14.7086C6.00991 15.355 6.55611 15.9051 7.29889 15.9697C7.53009 15.9898 7.76394 16 8 16C8.23606 16 8.46991 15.9898 8.7011 15.9697C9.44388 15.9051 9.99009 15.355 10.1591 14.7086L10.4482 13.6033C10.4657 13.5365 10.5271 13.4453 10.6601 13.3794C10.8917 13.2647 11.1148 13.1355 11.3281 12.993C11.4511 12.9109 11.5607 12.9033 11.6274 12.9216L12.7303 13.2242C13.3736 13.4007 14.1217 13.2037 14.5496 12.5949C14.8183 12.2124 15.0545 11.8053 15.254 11.3774C15.569 10.7019 15.3652 9.95456 14.8905 9.48555L14.0757 8.68042C14.0265 8.63187 13.9784 8.53328 13.9878 8.38606C13.9959 8.25832 14 8.12959 14 8C14 7.87041 13.9959 7.74168 13.9878 7.61394C13.9784 7.46672 14.0265 7.36813 14.0757 7.31958L14.8905 6.51445C15.3652 6.04544 15.569 5.29807 15.254 4.62261C15.0545 4.19472 14.8183 3.78756 14.5496 3.40515C14.1217 2.79628 13.3736 2.59932 12.7303 2.77581L11.6274 3.07843C11.5607 3.09672 11.4511 3.08907 11.3281 3.00696C11.1148 2.8645 10.8917 2.7353 10.6601 2.62057C10.5271 2.55473 10.4657 2.46346 10.4482 2.39667L10.1591 1.29138C9.99009 0.64504 9.44388 0.0949126 8.7011 0.0303426C8.46991 0.0102447 8.23606 0 8 0ZM9.5 8C9.5 8.82843 8.82843 9.5 8 9.5C7.17157 9.5 6.5 8.82843 6.5 8C6.5 7.17157 7.17157 6.5 8 6.5C8.82843 6.5 9.5 7.17157 9.5 8ZM11 8C11 9.65685 9.65685 11 8 11C6.34315 11 5 9.65685 5 8C5 6.34315 6.34315 5 8 5C9.65685 5 11 6.34315 11 8Z"/>
</svg>

<svg xmlns="http://www.w3.org/2000/svg" width="16" height="16" viewBox="0 0 16 16"><path fill-rule="evenodd" d="M7.429 1.525a6.593 6.593 0 011.142 0c.036.003.108.036.137.146l.289 1.105c.147.56.55.967.997 1.189.174.086.341.183.501.29.417.278.97.423 1.53.27l1.102-.303c.11-.03.175.016.195.046.219.31.41.641.573.989.014.031.022.11-.059.19l-.815.806c-.411.406-.562.957-.53 1.456a4.588 4.588 0 010 .582c-.032.499.119 1.05.53 1.456l.815.806c.08.08.073.159.059.19a6.494 6.494 0 01-.573.99c-.02.029-.086.074-.195.045l-1.103-.303c-.559-.153-1.112-.008-1.529.27-.16.107-.327.204-.5.29-.449.222-.851.628-.998 1.189l-.289 1.105c-.029.11-.101.143-.137.146a6.613 6.613 0 01-1.142 0c-.036-.003-.108-.037-.137-.146l-.289-1.105c-.147-.56-.55-.967-.997-1.189a4.502 4.502 0 01-.501-.29c-.417-.278-.97-.423-1.53-.27l-1.102.303c-.11.03-.175-.016-.195-.046a6.492 6.492 0 01-.573-.989c-.014-.031-.022-.11.059-.19l.815-.806c.411-.406.562-.957.53-1.456a4.587 4.587 0 010-.582c.032-.499-.119-1.05-.53-1.456l-.815-.806c-.08-.08-.073-.159-.059-.19a6.44 6.44 0 01.573-.99c.02-.029.086-.075.195-.045l1.103.303c.559.153 1.112.008 1.529-.27.16-.107.327-.204.5-.29.449-.222.851-.628.998-1.189l.289-1.105c.029-.11.101-.143.137-.146zM8 0c-.236 0-.47.01-.701.03-.743.065-1.29.615-1.458 1.261l-.29 1.106c-.017.066-.078.158-.211.224a5.994 5.994 0 00-.668.386c-.123.082-.233.09-.3.071L3.27 2.776c-.644-.177-1.392.02-1.82.63a7.977 7.977 0 00-.704 1.217c-.315.675-.111 1.422.363 1.891l.815.806c.05.048.098.147.088.294a6.084 6.084 0 000 .772c.01.147-.038.246-.088.294l-.815.806c-.474.469-.678 1.216-.363 1.891.2.428.436.835.704 1.218.428.609 1.176.806 1.82.63l1.103-.303c.066-.019.176-.011.299.071.213.143.436.272.668.386.133.066.194.158.212.224l.289 1.106c.169.646.715 1.196 1.458 1.26a8.094 8.094 0 001.402 0c.743-.064 1.29-.614 1.458-1.26l.29-1.106c.017-.066.078-.158.211-.224a5.98 5.98 0 00.668-.386c.123-.082.233-.09.3-.071l1.102.302c.644.177 1.392-.02 1.82-.63.268-.382.505-.789.704-1.217.315-.675.111-1.422-.364-1.891l-.814-.806c-.05-.048-.098-.147-.088-.294a6.1 6.1 0 000-.772c-.01-.147.039-.246.088-.294l.814-.806c.475-.469.679-1.216.364-1.891a7.992 7.992 0 00-.704-1.218c-.428-.609-1.176-.806-1.82-.63l-1.103.303c-.066.019-.176.011-.299-.071a5.991 5.991 0 00-.668-.386c-.133-.066-.194-.158-.212-.224L10.16 1.29C9.99.645 9.444.095 8.701.031A8.094 8.094 0 008 0zm1.5 8a1.5 1.5 0 11-3 0 1.5 1.5 0 013 0zM11 8a3 3 0 11-6 0 3 3 0 016 0z"/></svg>
